X:19
T:Chieftain's Lament, The
T:Do chinneadh bhi gun cheann
R:Slow Air
S:Simon Fraser Collection
N:No.18
N:No."Solemnly Slow"
O:Scottish
M:C
L:1/8
Q:1/4=100
K:G Minor
D|G>AB>c A>GG=B|c>BA>G ^F2 zD|G>AB>c A>G GB/4A/4B/4c/4|d>cB>A G3:|
A|B>cd>e d>cB>d|c>BA>G ^F2 zB/4A/4B/4c/4|d>cB>A G>^FD>F|G>^FG>A G2 zA|
B>cd>g d>cB>d|c>BA>G ^F2 zB/4A/4B/4c/4|d>cB>A G>^FD>F|G>^FG>A G2 z||

